X: 43657
T: Zucchini Reel, The
R: reel
M: 4/4
K: Dmajor
Ac|d2d=c ADFA|G2BG =cGBG|Add=c ADFD|GBAG FDAc|
d2d=c ADFA|G2BG =cGBG|Add=c ADFD|GBAG FDAd|
effd gfed|cABc d2 de|f2fd gfed|eaag e2 de|
effd gfed|cABc d2 A=c|d2d=c ADFD|GBAG FDD2|

